public/assets/upload-icon.svg

<svg fill="none" height="28" viewBox="0 0 28 28" width="28" xmlns="http://www.w3.org/2000/svg"><path clip-rule="evenodd" d="m13.0481.304501c.1818-.187774.4365-.30450098.7185-.30450098.0094-.00000173.0187.00012635.028.00038423.0977.00268422.1918.01937125.2806.04812515.1458.0471254.2829.1285866.3987.2443836l7.0928 7.092757c.3905.39052.3905 1.02369 0 1.41421-.3906.39052-1.0237.39052-1.4142 0l-5.3859-5.38583v14.60857c0 .5523-.4477 1-1 1s-1-.4477-1-1v-14.6082l-5.38544 5.38546c-.39052.39052-1.02369.39052-1.41421 0-.39053-.39052-.39053-1.02369 0-1.41421zm-12.0481 16.717699c.55228 0 1 .4477 1 1v5.6742c0 .4872.19355.9545.53807 1.299.34453.3445.8118.5381 1.29903.5381h19.8597c.4872 0 .9545-.1936 1.299-.5381.3446-.3445.5381-.8118.5381-1.299v-5.6742c0-.5523.4477-1 1-1s1 .4477 1 1v5.6742c0 1.0176-.4043 1.9936-1.1239 2.7132-.7195.7196-1.6955 1.1239-2.7132 1.1239h-19.8597c-1.01766 0-1.99364-.4043-2.71324-1.1239-.719595-.7196-1.12386-1.6956-1.12386-2.7132v-5.6742c0-.5523.447715-1 1-1z" fill="#fff" fill-rule="evenodd"/></svg>

<svg width="28" height="28" viewBox="0 0 28 28" fill="none" xmlns="http://www.w3.org/2000/svg">
<path fill-rule="evenodd" clip-rule="evenodd" d="M13.0481 0.304501C13.2299 0.116727 13.4846 1.71411e-08 13.7666 1.71411e-08C13.776 -1.70523e-06 13.7853 0.000126373 13.7946 0.000384248C13.8923 0.00306847 13.9864 0.0197555 14.0752 0.0485094C14.221 0.0956348 14.3581 0.177096 14.4739 0.292893L21.5667 7.38565C21.9572 7.77617 21.9572 8.40934 21.5667 8.79986C21.1761 9.19038 20.543 9.19038 20.1525 8.79986L14.7666 3.41403V18.0226C14.7666 18.5749 14.3189 19.0226 13.7666 19.0226C13.2143 19.0226 12.7666 18.5749 12.7666 18.0226V3.4144L7.38116 8.79986C6.99064 9.19038 6.35747 9.19038 5.96695 8.79986C5.57642 8.40934 5.57642 7.77617 5.96695 7.38565L13.0481 0.304501ZM1 17.0222C1.55228 17.0222 2 17.4699 2 18.0222V23.6964C2 24.1836 2.19355 24.6509 2.53807 24.9954C2.8826 25.3399 3.34987 25.5335 3.8371 25.5335H23.6968C24.184 25.5335 24.6513 25.3399 24.9958 24.9954C25.3404 24.6509 25.5339 24.1836 25.5339 23.6964V18.0222C25.5339 17.4699 25.9816 17.0222 26.5339 17.0222C27.0862 17.0222 27.5339 17.4699 27.5339 18.0222V23.6964C27.5339 24.714 27.1296 25.69 26.41 26.4096C25.6905 27.1292 24.7145 27.5335 23.6968 27.5335H3.8371C2.81944 27.5335 1.84346 27.1292 1.12386 26.4096C0.404265 25.69 0 24.714 0 23.6964V18.0222C0 17.4699 0.447715 17.0222 1 17.0222Z" fill="white"/>
</svg>
